X:1
T:Title
%%score { 1 | ( 2 3 ) }
L:1/8
M:3/2
K:D
V:1 treble nm="Grand Piano"
V:2 bass 
V:3 bass 
V:1
 z4 z4[Q:1/4=130] F3 F | F6 F2 [EG]3 [EG] | [EG]2 [DF]6 [FA]3 [FA] | A6 A2 B3 ^G | %4
[M:4/4] [DEB]2 [CEA]6 |[M:2/4] A3 A |[M:6/4] [Fd]6 [Fd]2 [Gd]3 [Ad] | [Ac]2 B4- B2 A3 B | %8
 A6 E2 [CGA]3 [CGB] |[M:4/4] [DFA]8 |] %10
V:2
 z4 z4 [D,A,D]3 [D,A,D] | [D,A,D]6 [D,A,D]2 [C,A,]3 [C,A,] | [D,A,]2 [D,A,]6 [D,D]3 [D,D] | %3
 [E,CE]6 [E,A,C]2 [E,^G,E]3 [E,B,E] |[M:4/4] A,,2 A,,6 |[M:2/4] A,3 A, | %6
[M:6/4] [D,A,]6 [D,A,]2 [E,A,]3 [F,D] | [G,D]2 [G,DG]4- [G,DG]2 [A,DF]3 [A,DG] | .[A,C]12 | %9
[M:4/4] D,8 |] %10
V:3
 x12 | x12 | x12 | x12 |[M:4/4] x8 |[M:2/4] x4 |[M:6/4] x12 | x12 | E6 z2 A,,3 A,, |[M:4/4] x8 |] %10

